X:1
T:Hold My Hand, Lord Jesus
M:2/4
L:1/8
K:C
 z2 GG| G/2- E3/2 E2| EG FE| E/2- D3/2- D2| z2 DE| F2 F2| FA G3/2 F/2|\
 E4| z2 EF| GG G/2 G3/2| G2 c/2 c3/2| cA A/2 A3/2| A2-A-c| G3 F| E2 G2|\
 F3 E| D2 A/2- G3/2| E2 E/2- D3/2| C4|
